svg/pictographs/pictograph_Business_Distribution.svg

<?xml version='1.0' encoding='utf-8'?>
<svg xmlns="http://www.w3.org/2000/svg" id="Layer_1" data-name="Layer 1" width="110" height="110" viewBox="0 0 110 110">
  <path d="M55.714,93l23.286-14.312v-25.545M55.714,93v-26.998M55.714,93v-26.993l-23.714-12.864M55.714,93l-23.714-14.312v-25.545M55.714,66.002l23.286-12.859M55.714,66.002l-23.714-12.859M79,53.143l-23.286-14.143-23.714,14.143" style="fill:none;stroke:currentColor;stroke-linecap:round;stroke-linejoin:round;stroke-width:1.5" />
  <polyline points="62.8383 23.8418 56 17.0035 49.1617 23.8418 56 17 56 32" style="fill:none;stroke:currentColor;stroke-linecap:round;stroke-linejoin:round;stroke-width:1.5" />
  <polyline points="16.8418 59.6617 10.0035 66.5 16.8418 73.3383 10 66.5 25 66.5" style="fill:none;stroke:currentColor;stroke-linecap:round;stroke-linejoin:round;stroke-width:1.5" />
  <polyline points="94.1582 73.3383 100.9965 66.5 94.1582 59.6617 101 66.5 86 66.5" style="fill:none;stroke:currentColor;stroke-linecap:round;stroke-linejoin:round;stroke-width:1.5" />
  <polyline points="88.6044 42.5135 88.6044 32.8426 78.9335 32.8426 88.6068 32.8402 78.0002 43.4468" style="fill:none;stroke:currentColor;stroke-linecap:round;stroke-linejoin:round;stroke-width:1.5" />
  <polyline points="32.672 32.8426 23.0012 32.8426 23.0012 42.5135 22.9987 32.8402 33.6053 43.4468" style="fill:none;stroke:currentColor;stroke-linecap:round;stroke-linejoin:round;stroke-width:1.5" />
</svg>

<?xml version='1.0' encoding='utf-8'?>
<svg xmlns="http://www.w3.org/2000/svg" version="1.1" id="Layer_1" x="0px" y="0px" viewBox="0 0 110 110" style="enable-background:new 0 0 110 110;fill:none;stroke:currentColor;stroke-width:1.5" xml:space="preserve">
<path style="fill:none;stroke:currentColor;stroke-width:1.5;stroke-linecap:round;stroke-linejoin:round;stroke-miterlimit:10" d="  M55.714,93L79,78.688V53.143 M55.714,93V66.002 M55.714,93V66.007L32,53.143 M55.714,93L32,78.688V53.143 M55.714,66.002L79,53.143   M55.714,66.002L32,53.143 M79,53.143L55.714,39L32,53.143" />
<path style="fill:none;stroke:currentColor;stroke-width:1.5" d="M25,67.5c0.552,0,1-0.448,1-1s-0.448-1-1-1V67.5z M9.293,65.793c-0.391,0.391-0.391,1.024,0,1.414  l6.364,6.364c0.39,0.391,1.024,0.391,1.414,0c0.39-0.391,0.39-1.024,0-1.414L11.414,66.5l5.657-5.657c0.39-0.391,0.39-1.024,0-1.414  c-0.391-0.391-1.024-0.391-1.414,0L9.293,65.793z M32.898,44.154c0.39,0.391,1.024,0.391,1.414,0c0.391-0.39,0.391-1.024,0-1.414  L32.898,44.154z M22.999,31.84c-0.552,0-1,0.448-1,1v9c0,0.552,0.448,1,1,1s1-0.448,1-1v-8h8c0.552,0,1-0.448,1-1s-0.448-1-1-1  H22.999z M77.293,42.74c-0.391,0.391-0.391,1.024,0,1.414c0.391,0.391,1.024,0.391,1.414,0L77.293,42.74z M89.607,32.84  c0-0.552-0.448-1-1-1h-9c-0.552,0-1,0.448-1,1s0.448,1,1,1h8v8c0,0.552,0.448,1,1,1s1-0.448,1-1V32.84z M86,65.5  c-0.552,0-1,0.448-1,1s0.448,1,1,1V65.5z M101.707,67.207c0.391-0.391,0.391-1.024,0-1.414l-6.364-6.364  c-0.391-0.391-1.024-0.391-1.414,0c-0.391,0.391-0.391,1.024,0,1.414l5.657,5.657l-5.657,5.657c-0.391,0.391-0.391,1.024,0,1.414  c0.391,0.391,1.024,0.391,1.414,0L101.707,67.207z M55,32c0,0.552,0.448,1,1,1s1-0.448,1-1H55z M56.707,16.293  c-0.39-0.391-1.024-0.391-1.414,0l-6.364,6.364c-0.391,0.39-0.391,1.024,0,1.414c0.391,0.39,1.024,0.39,1.414,0L56,18.414  l5.657,5.657c0.391,0.39,1.024,0.39,1.414,0c0.391-0.391,0.391-1.024,0-1.414L56.707,16.293z M25,65.5H10v2h15V65.5z M34.312,42.74  L23.706,32.133l-1.414,1.414l10.607,10.607L34.312,42.74z M78.707,44.154l10.607-10.607l-1.414-1.414L77.293,42.74L78.707,44.154z   M86,67.5h15v-2H86V67.5z M57,32V17h-2v15H57z" />
</svg>
